docs/img/all-services/16.svg

<svg width="80" height="80" viewBox="0 0 80 80" fill="none" xmlns="http://www.w3.org/2000/svg">
<path d="M61.0413 45.7785C61.0413 34.6668 40.5363 7.14288 40.5363 7.14288C40.5363 7.14288 20.0312 34.6668 20.0312 45.7785C20.0312 56.8901 29.2118 65.898 40.5363 65.898C51.8608 65.8986 61.0413 56.8907 61.0413 45.7785Z" stroke="#0098D0" stroke-width="2" stroke-miterlimit="10" stroke-linecap="round" stroke-linejoin="round"/>
<path d="M1.42969 63.8715H19.8608" stroke="#0098D0" stroke-width="2" stroke-miterlimit="10" stroke-linecap="round" stroke-linejoin="round"/>
<path d="M10.2031 72.8571H73.7418" stroke="#0098D0" stroke-width="2" stroke-miterlimit="10" stroke-linecap="round" stroke-linejoin="round"/>
<path d="M56.0508 17.5244H67.6951" stroke="#0098D0" stroke-width="2" stroke-miterlimit="10" stroke-linecap="round" stroke-linejoin="round"/>
<path d="M51.6523 7.14288H78.5708" stroke="#0098D0" stroke-width="2" stroke-miterlimit="10" stroke-linecap="round" stroke-linejoin="round"/>
<path d="M29.9286 54.237L29.9281 54.237C29.0502 54.2903 28.1722 54.2941 27.298 54.2531C30.1247 58.4812 35.0007 61.2847 40.5382 61.2847C49.2789 61.2847 56.3588 54.3104 56.3588 45.7797V45.7794C56.3591 44.5576 55.9523 42.8463 55.171 40.7388C54.6247 39.2652 53.9112 37.6389 53.0701 35.9106C51.9522 39.1541 50.3649 42.2579 48.1587 44.9565L29.9286 54.237ZM29.9286 54.237C36.9616 53.8063 43.7429 50.3585 48.1586 44.9566L29.9286 54.237Z" stroke="#0098D0" stroke-width="2"/>
</svg>

<svg width="80" height="80" fill="none" xmlns="http://www.w3.org/2000/svg"><path d="M61.041 45.779c0-11.112-20.505-38.636-20.505-38.636S20.031 34.667 20.031 45.779c0 11.111 9.18 20.119 20.505 20.119s20.505-9.007 20.505-20.12zM1.43 63.871h18.43m-9.657 8.986h63.539M56.05 17.524h11.645M51.652 7.143h26.919" stroke="#0098D0" stroke-width="2" stroke-miterlimit="10" stroke-linecap="round" stroke-linejoin="round"/><path d="M29.929 54.237h0c-.879.053-1.757.057-2.631.016a15.9 15.9 0 0013.24 7.032c8.74 0 15.82-6.975 15.82-15.505v0c.001-1.222-.406-2.934-1.187-5.041-.546-1.474-1.26-3.1-2.1-4.828-1.119 3.243-2.706 6.347-4.912 9.045l-18.23 9.281zm0 0c7.033-.43 13.814-3.879 18.23-9.28l-18.23 9.28z" stroke="#0098D0" stroke-width="2"/></svg>
